icons/logout-circle-line.svg

<svg xmlns="http://www.w3.org/2000/svg" width="24" height="24" fill="none"><g clip-path="url(#a)"><g><path fill="#121212" d="M5 11H13V13H5V16L0 12L5 8V11ZM4 18H6.708C7.86269 19.0183 9.28669 19.6819 10.8091 19.9109C12.3316 20.14 13.8878 19.9249 15.291 19.2915C16.6942 18.6581 17.8849 17.6332 18.7201 16.3398C19.5553 15.0465 19.9995 13.5396 19.9995 12C19.9995 10.4604 19.5553 8.95354 18.7201 7.66019C17.8849 6.36683 16.6942 5.34194 15.291 4.7085C13.8878 4.07506 12.3316 3.85998 10.8091 4.08906C9.28669 4.31815 7.86269 4.98167 6.708 6H4C4.93066 4.75718 6.13833 3.74851 7.52707 3.05414C8.91581 2.35978 10.4473 1.99884 12 2C17.523 2 22 6.477 22 12C22 17.523 17.523 22 12 22C10.4473 22.0012 8.91581 21.6402 7.52707 20.9459C6.13833 20.2515 4.93066 19.2428 4 18Z"/></g></g><defs><clipPath id="a"><rect width="24" height="24" fill="white"/></clipPath></defs></svg>

<svg width="24" height="24" fill="none" xmlns="http://www.w3.org/2000/svg"><g clip-path="url(#a)"><path d="M5 11h8v2H5v3l-5-4 5-4v3Zm-1 7h2.708a8 8 0 1 0 0-12H4a9.985 9.985 0 0 1 8-4c5.523 0 10 4.477 10 10s-4.477 10-10 10a9.985 9.985 0 0 1-8-4Z" /></g><defs><clipPath id="a"><path fill="#fff" d="M0 0h24v24H0z"/></clipPath></defs></svg>
